src/animals-nature/animal-bird/1F423.svg

<svg id="emoji" viewBox="0 0 72 72" xmlns="http://www.w3.org/2000/svg">
  <g id="grid">
    <path fill="#b3b3b3" d="M68,4V68H4V4H68m4-4H0V72H72V0Z"/>
    <path fill="none" stroke="#00a5ff" stroke-miterlimit="10" stroke-width="0.1" d="M12.923,10.9583H59.0769A1.9231,1.9231,0,0,1,61,12.8814V59.0352a1.9231,1.9231,0,0,1-1.9231,1.9231H12.9231A1.9231,1.9231,0,0,1,11,59.0352V12.8813A1.923,1.923,0,0,1,12.923,10.9583Z"/>
    <rect x="16" y="4" rx="2.2537" width="40" height="64" fill="none" stroke="#00a5ff" stroke-miterlimit="10" stroke-width="0.1"/>
    <rect x="16" y="4" rx="2.2537" width="40" height="64" transform="translate(72) rotate(90)" fill="none" stroke="#00a5ff" stroke-miterlimit="10" stroke-width="0.1"/>
    <circle cx="36" cy="36" r="29" fill="none" stroke="#00a5ff" stroke-miterlimit="10" stroke-width="0.1"/>
  </g>
  <g id="color">
    <path fill="#FCEA2B" stroke="#FCEA2B" stroke-miterlimit="10" stroke-width="1.8" d="M36.1089,44.1242 c0,0,21.3368-0.7112,10.6684-20.6256c0,0-2.8449-7.8235-10.6684-7.8235c-2.2075,0-4.0187,0.5096-5.4973,1.2733 c-3.7618,1.9427-5.3718,5.5292-5.8823,6.5502C24.018,24.9211,13.3496,42.7018,36.1089,44.1242z"/>
    <path fill="#F1B31C" stroke="none" d="M35.3719,30.6032c0,0,5.9251-0.2907,0,5.2324C35.3719,35.8356,29.4468,30.6032,35.3719,30.6032z"/>
    <path fill="#FFFFFF" stroke="none" d="M61.6942,37.9501C61.6942,52.3371,50.0313,64,35.6443,64S9.5944,52.3371,9.5944,37.9501l7.4428,3.7214 l6.5125-4.6518l8.3732,5.5821l6.2024-5.5821l8.1758,4.7364l7.0199-5.6667L61.6942,37.9501z"/>
    <path fill="#D0CFCE" stroke="none" d="M53.321,36.0894C51.3406,47.7279,46.2215,57.4929,35.6443,64c14.387,0,26.0499-11.663,26.0499-26.0499 L53.321,36.0894z"/>
  </g>
  <g id="hair"/>
  <g id="skin"/>
  <g id="skin-shadow"/>
  <g id="line">
    <circle cx="30.908" cy="26.3629" r="2.3682" fill="#000000" stroke="none"/>
    <circle cx="40.3807" cy="26.3629" r="2.3682" fill="#000000" stroke="none"/>
    <line x1="34.7963" x2="33.4334" y1="14.9035" y2="9.7857" fill="none" stroke="#000000" stroke-linecap="round" stroke-linejoin="round" stroke-miterlimit="10" stroke-width="2"/>
    <line x1="36.8284" x2="36.8284" y1="15.7062" y2="12.1539" fill="none" stroke="#000000" stroke-linecap="round" stroke-linejoin="round" stroke-miterlimit="10" stroke-width="2"/>
    <line x1="38.9992" x2="40.3807" y1="15.9035" y2="9.7857" fill="none" stroke="#000000" stroke-linecap="round" stroke-linejoin="round" stroke-miterlimit="10" stroke-width="2"/>
    <path fill="none" stroke="#000000" stroke-linecap="round" stroke-linejoin="round" stroke-miterlimit="10" stroke-width="2" d="M35.3719,30.6032c0,0,5.9251-0.2907,0,5.2324C35.3719,35.8356,29.4468,30.6032,35.3719,30.6032z"/>
    <path fill="none" stroke="#000000" stroke-linecap="round" stroke-linejoin="round" stroke-miterlimit="10" stroke-width="2" d="M49.7637,33.4191c0.0286-2.6167-0.8175-5.8717-2.9865-9.9204c0,0-2.8449-7.8235-10.6684-7.8235 c-2.2075,0-4.0187,0.5096-5.4973,1.2733c-3.7618,1.9427-5.3718,5.5292-5.8823,6.5502c-0.3479,0.6959-3.0787,5.3065-3.1133,10.0017"/>
    <path fill="none" stroke="#000000" stroke-linecap="round" stroke-linejoin="round" stroke-miterlimit="10" stroke-width="2" d="M61.6942,37.9501C61.6942,52.3371,50.0313,64,35.6443,64S9.5944,52.3371,9.5944,37.9501l7.4428,3.7214l6.5125-4.6518l8.3732,5.5821 l6.2024-5.5821l8.1758,4.7364l7.0199-5.6667L61.6942,37.9501z"/>
  </g>
</svg>

<svg viewBox="0 0 72 72" xmlns="http://www.w3.org/2000/svg"><path fill="#b3b3b3" d="M68 4v64H4V4h64m4-4H0v72h72V0z"/><path fill="none" stroke="#00a5ff" stroke-miterlimit="10" stroke-width=".1" d="M12.923 10.958h46.154A1.923 1.923 0 0161 12.881v46.154a1.923 1.923 0 01-1.923 1.923H12.923A1.923 1.923 0 0111 59.035V12.881a1.923 1.923 0 011.923-1.923z"/><rect x="16" y="4" rx="2.254" width="40" height="64" fill="none" stroke="#00a5ff" stroke-miterlimit="10" stroke-width=".1"/><rect x="16" y="4" rx="2.254" width="40" height="64" transform="rotate(90 36 36)" fill="none" stroke="#00a5ff" stroke-miterlimit="10" stroke-width=".1"/><circle cx="36" cy="36" r="29" fill="none" stroke="#00a5ff" stroke-miterlimit="10" stroke-width=".1"/><g stroke-linecap="round" stroke-miterlimit="10" stroke-width="6" stroke="#fff" fill="none" stroke-linejoin="round"><circle cx="30.908" cy="26.363" r="2.368"/><circle cx="40.381" cy="26.363" r="2.368"/><path d="M34.796 14.903l-1.363-5.117m3.395 5.92v-3.552m2.171 3.749l1.382-6.117m-5.009 20.817s5.925-.29 0 5.233c0 0-5.925-5.233 0-5.233z"/><path d="M49.764 33.42c.028-2.618-.818-5.873-2.987-9.921 0 0-2.845-7.824-10.668-7.824-2.208 0-4.019.51-5.497 1.273-3.762 1.943-5.372 5.53-5.883 6.55-.348.697-3.078 5.307-3.113 10.002m40.078 4.45c0 14.387-11.663 26.05-26.05 26.05S9.594 52.337 9.594 37.95l7.443 3.721 6.513-4.651 8.373 5.582 6.202-5.582 8.176 4.736 7.02-5.667 8.373 1.861z"/></g><path fill="#FCEA2B" stroke="#FCEA2B" stroke-miterlimit="10" stroke-width="1.8" d="M36.109 44.124s21.337-.711 10.668-20.625c0 0-2.845-7.824-10.668-7.824-2.208 0-4.019.51-5.497 1.273-3.762 1.943-5.372 5.53-5.883 6.55-.711 1.423-11.38 19.204 11.38 20.626z"/><path fill="#F1B31C" d="M35.372 30.603s5.925-.29 0 5.233c0 0-5.925-5.233 0-5.233z"/><path fill="#FFF" d="M61.694 37.95c0 14.387-11.663 26.05-26.05 26.05S9.594 52.337 9.594 37.95l7.443 3.721 6.513-4.651 8.373 5.582 6.202-5.582 8.176 4.736 7.02-5.667 8.373 1.861z"/><path fill="#D0CFCE" d="M53.321 36.09c-1.98 11.638-7.1 21.403-17.677 27.91 14.387 0 26.05-11.663 26.05-26.05l-8.373-1.86z"/><circle cx="30.908" cy="26.363" r="2.368"/><circle cx="40.381" cy="26.363" r="2.368"/><path fill="none" stroke="#000" stroke-linecap="round" stroke-linejoin="round" stroke-miterlimit="10" stroke-width="2" d="M34.796 14.903l-1.363-5.117m3.395 5.92v-3.552m2.171 3.749l1.382-6.117m-5.009 20.817s5.925-.29 0 5.233c0 0-5.925-5.233 0-5.233z"/><path fill="none" stroke="#000" stroke-linecap="round" stroke-linejoin="round" stroke-miterlimit="10" stroke-width="2" d="M49.764 33.42c.028-2.618-.818-5.873-2.987-9.921 0 0-2.845-7.824-10.668-7.824-2.208 0-4.019.51-5.497 1.273-3.762 1.943-5.372 5.53-5.883 6.55-.348.697-3.078 5.307-3.113 10.002m40.078 4.45c0 14.387-11.663 26.05-26.05 26.05S9.594 52.337 9.594 37.95l7.443 3.721 6.513-4.651 8.373 5.582 6.202-5.582 8.176 4.736 7.02-5.667 8.373 1.861z"/></svg>
